X:435
T: Wanjia denghuo fangguangming
N: C2053
O: China,Anhui Tongcheng
S: III, 547]
R: Xiaodiao, Paimen diao]
M: 2/4
L: 1/16
K: G
d2B2d2e2B2A2G2E2 | G3Ad2B2A2B2A2B2 | G2E2A2G2G2E6
A2B2d4e2d2B2A2 | B2A2B2d2G2G4B2 | A4AGE2D8
d2B2d2e2B2A2G2E2 | G3Ad2B2A2B2A2B2 | G2E2A2G2G2E6
A2B2d4e2d2B2A2 | B2A2B2d2G2G4B2 | A4AGE2D8
d2d2e2d2B2d2A4 | d2B2A2A2 | A2A2d4 |
d2B2A2B2 | G2GEd4 | A2A2d2d2 | A2A2d4 |
B2A2B2A2 | B2A2B2d2 | G2G4B2 | A4AGE2 | D8

@@@ Tune index: 6990
